X: 43446
T: Yarmouth Breakdown
R: hornpipe
M: 4/4
K: Dmajor
|:AG|FAde ~f3e|fedc B2Af|geed ce~e2|edcB A2AG|
FAde ~f3e|fedc B2Af|geed ce~e2|(3ege dc d2:|
|:AG|FDFA dAFA|~G2FD A,2 (3DDD|CDEF GECE|DEFG A2AG|
FDFA dAFA|~G2FD A,2 (3DDD|CDEF GECE|(3EGE DC D2:|

